X:1
T:Title
%%score 1 { 2 | 3 }
L:1/8
Q:1/4=110
M:3/4
K:F
V:1 treble nm="Grand Piano, Soprano"
V:2 bass nm="Choir Pad, Croydon (Ching)"
V:3 bass 
V:1
 [DF]2 [DG]2 [DB]2 | [_EB]3 [EA] [EA]2 | [_EA]2 [EG]2 [EF]2 | [DF]6 | [DF]2 [DG]2 [DB]2 | %5
w: By~Samuel~Ching,~1904 * *|||||
 [Ed]3 [Fc] [Fc]2 | [FB]2 [FG]2 [EA]2 | [CF]6 | [_EA]2 [Ed]2 [Ec]2 | [_Ec]3 [DB] [DF]2 | %10
w: |||||
 [C^F]2 [CB]2 [CA]2 | [CA]3 [B,G] [B,G]2 | [^CG]2 [CA]2 [CB]2 | [DB]3 [DF] [DF]2 | %14
w: ||||
 [DB]2 [Ec]2 [_Ec]2 | [DB]6- | [DB]2 z2 z2 |] %17
w: |||
V:2
 F,2 F,2 F,2 | F,3 F, F,2 | A,2 B,2 C2 | B,6 | F,2 F,2 F,2 | B,3[K:treble] C C2 | D2 B,2 C2 | A,6 | %8
 C2 G,2 A,2 | A,3 B, B,2 | A,2 E,2 ^F,2 | ^F,3 G, G,2 | B,2 A,2 G,2 | F,3 B, B,2 | B,2 B,2 A,2 | %15
 B,6- | B,2 z2 z2 |] %17
V:3
 B,,2 B,,2 B,,2 | C,3 C, C,2 | F,,2 G,,2 A,,2 | B,,6 | B,,2 B,,2 B,,2 | G,,3 A,, A,,2 | %6
 B,,2 D,2 C,2 | F,6 | F,2 F,2 F,2 | B,,3 B,, B,,2 | D,2 D,2 D,2 | G,,3 G,, G,,2 | E,2 E,2 E,2 | %13
 z2 z F, F,2 | G,2 C,2 F,2 | B,,6- | B,,2 z2 z2 |] %17

